communes/2063.svg

<?xml version="1.0" encoding="UTF-8" standalone="no"?>
<svg
   xmlns:dc="http://purl.org/dc/elements/1.1/"
   xmlns:cc="http://creativecommons.org/ns#"
   xmlns:rdf="http://www.w3.org/1999/02/22-rdf-syntax-ns#"
   xmlns:svg="http://www.w3.org/2000/svg"
   xmlns="http://www.w3.org/2000/svg"
   xmlns:xlink="http://www.w3.org/1999/xlink"
   xmlns:sodipodi="http://sodipodi.sourceforge.net/DTD/sodipodi-0.dtd"
   xmlns:inkscape="http://www.inkscape.org/namespaces/inkscape"
   height="763"
   width="603"
   version="1.0"
   id="svg20"
   sodipodi:version="0.32"
   inkscape:version="0.46"
   sodipodi:docname="2063.svg"
   inkscape:output_extension="org.inkscape.output.svg.inkscape">
  <metadata
     id="metadata31">
    <rdf:RDF>
      <cc:Work
         rdf:about="">
        <dc:format>image/svg+xml</dc:format>
        <dc:type
           rdf:resource="http://purl.org/dc/dcmitype/StillImage" />
        <dc:date>10-JUN-2010</dc:date>
        <dc:creator>
          <cc:Agent>
            <dc:title>Aliman5040</dc:title>
          </cc:Agent>
        </dc:creator>
        <cc:license
           rdf:resource="" />
        <dc:coverage />
        <dc:description />
        <dc:subject>
          <rdf:Bag />
        </dc:subject>
        <dc:language />
        <dc:title>Wappen Gemeinde Billens</dc:title>
      </cc:Work>
    </rdf:RDF>
  </metadata>
  <defs
     id="defs29">
    <inkscape:perspective
       sodipodi:type="inkscape:persp3d"
       inkscape:vp_x="0 : 381.5 : 1"
       inkscape:vp_y="0 : 1000 : 0"
       inkscape:vp_z="603 : 381.5 : 1"
       inkscape:persp3d-origin="301.5 : 254.33333 : 1"
       id="perspective5149" />
    <linearGradient
       id="linearGradient2893">
      <stop
         style="stop-color:#ffffff;stop-opacity:0.3137255;"
         offset="0"
         id="stop2895" />
      <stop
         id="stop2897"
         offset="0.19"
         style="stop-color:#ffffff;stop-opacity:0.25098041;" />
      <stop
         style="stop-color:#6b6b6b;stop-opacity:0.1254902;"
         offset="0.60000002"
         id="stop2901" />
      <stop
         style="stop-color:#000000;stop-opacity:0.1254902;"
         offset="1"
         id="stop2899" />
    </linearGradient>
    <radialGradient
       inkscape:collect="always"
       xlink:href="#linearGradient2893"
       id="radialGradient3236"
       gradientUnits="userSpaceOnUse"
       gradientTransform="matrix(1.215027,1.531577e-24,1.464684e-23,1.266667,-839.1924,-490.4894)"
       cx="858.04236"
       cy="579.93323"
       fx="858.04236"
       fy="579.93323"
       r="300" />
    <inkscape:perspective
       id="perspective5197"
       inkscape:persp3d-origin="372.04724 : 350.78739 : 1"
       inkscape:vp_z="744.09448 : 526.18109 : 1"
       inkscape:vp_y="0 : 1000 : 0"
       inkscape:vp_x="0 : 526.18109 : 1"
       sodipodi:type="inkscape:persp3d" />
  </defs>
  <sodipodi:namedview
     inkscape:window-height="720"
     inkscape:window-width="1280"
     inkscape:pageshadow="2"
     inkscape:pageopacity="0.0"
     guidetolerance="10.0"
     gridtolerance="10.0"
     objecttolerance="10.0"
     borderopacity="1.0"
     bordercolor="#666666"
     pagecolor="#ffffff"
     id="base"
     inkscape:zoom="0.67103538"
     inkscape:cx="121.61258"
     inkscape:cy="386.51624"
     inkscape:window-x="-8"
     inkscape:window-y="-8"
     inkscape:current-layer="layer2"
     showgrid="true"
     showguides="true"
     inkscape:guide-bbox="true"
     inkscape:document-rotation="0">
    <inkscape:grid
       type="xygrid"
       id="grid5151"
       visible="true"
       enabled="true" />
  </sodipodi:namedview>
  <g
     inkscape:groupmode="layer"
     id="layer1"
     inkscape:label="Fond écu"
     style="display:inline"
     sodipodi:insensitive="true">
    <path
       id="path1899"
       d="M 1.5,1.49998 L 1.5,460.3679 C 1.5,626.6785 135.81456,761.5 301.49999,761.5 C 467.18543,761.5 601.5,626.6785 601.5,460.3679 L 601.5,1.49998 L 1.5,1.49998 z"
       style="fill:#e20909;fill-opacity:1" />
  </g>
  <g
     inkscape:groupmode="layer"
     id="layer2"
     inkscape:label="Meubles"
     style="display:inline"
     sodipodi:insensitive="true">
    <path
       style="opacity:1;fill:#000000;fill-opacity:1;fill-rule:nonzero;stroke:#000000;stroke-width:3;stroke-linecap:butt;stroke-linejoin:miter;stroke-miterlimit:4;stroke-dasharray:none;stroke-opacity:1"
       d="M 1.5,3 L 1.5,104.5 L 540,643 C 570.69161,602.67901 591.48455,554.36265 598.6875,501.6875 L 100,3 L 1.5,3 z"
       id="path3362" />
    <path
       sodipodi:type="star"
       style="opacity:1;fill:#fcef3c;fill-opacity:1;fill-rule:nonzero;stroke:#000000;stroke-width:3;stroke-linecap:butt;stroke-linejoin:miter;stroke-miterlimit:4;stroke-dasharray:none;stroke-opacity:1"
       id="path3312"
       sodipodi:sides="5"
       sodipodi:cx="280"
       sodipodi:cy="183"
       sodipodi:r1="97.6166"
       sodipodi:r2="35.720673"
       sodipodi:arg1="0.90885469"
       sodipodi:arg2="1.5371732"
       inkscape:flatsided="false"
       inkscape:rounded="0"
       inkscape:randomized="0"
       d="M 340,260 L 281.20081,218.70048 L 225.30967,263.8577 L 246.41789,195.1741 L 186.19951,155.97281 L 258.0443,154.82352 L 276.71845,85.438573 L 300.01274,153.41188 L 371.77237,149.73092 L 314.32425,192.89001 L 340,260 z"
       transform="matrix(0.4854724,0.4108759,-0.4108766,0.4854734,93.343677,-38.711905)" />
    <path
       transform="matrix(0.4222431,0.4756187,-0.4756196,0.4222441,273.79854,106.05484)"
       d="M 340,260 L 281.20081,218.70048 L 225.30967,263.8577 L 246.41789,195.1741 L 186.19951,155.97281 L 258.0443,154.82352 L 276.71845,85.438573 L 300.01274,153.41188 L 371.77237,149.73092 L 314.32425,192.89001 L 340,260 z"
       inkscape:randomized="0"
       inkscape:rounded="0"
       inkscape:flatsided="false"
       sodipodi:arg2="1.5371732"
       sodipodi:arg1="0.90885469"
       sodipodi:r2="35.720673"
       sodipodi:r1="97.6166"
       sodipodi:cy="183"
       sodipodi:cx="280"
       sodipodi:sides="5"
       id="path3367"
       style="opacity:1;fill:#fcef3c;fill-opacity:1;fill-rule:nonzero;stroke:#000000;stroke-width:3;stroke-linecap:butt;stroke-linejoin:miter;stroke-miterlimit:4;stroke-dasharray:none;stroke-opacity:1"
       sodipodi:type="star" />
    <path
       sodipodi:type="star"
       style="opacity:1;fill:#fcef3c;fill-opacity:1;fill-rule:nonzero;stroke:#000000;stroke-width:3;stroke-linecap:butt;stroke-linejoin:miter;stroke-miterlimit:4;stroke-dasharray:none;stroke-opacity:1"
       id="path3369"
       sodipodi:sides="5"
       sodipodi:cx="280"
       sodipodi:cy="183"
       sodipodi:r1="97.6166"
       sodipodi:r2="35.720673"
       sodipodi:arg1="0.90885469"
       sodipodi:arg2="1.5371732"
       inkscape:flatsided="false"
       inkscape:rounded="0"
       inkscape:randomized="0"
       d="M 340,260 L 281.20081,218.70048 L 225.30967,263.8577 L 246.41789,195.1741 L 186.19951,155.97281 L 258.0443,154.82352 L 276.71845,85.438573 L 300.01274,153.41188 L 371.77237,149.73092 L 314.32425,192.89001 L 340,260 z"
       transform="matrix(0.4406232,0.4586432,-0.4586441,0.4406242,401.74011,243.40117)" />
    <path
       style="opacity:1;fill:#fcef3c;fill-opacity:1;fill-rule:nonzero;stroke:#000000;stroke-width:3;stroke-linecap:butt;stroke-linejoin:miter;stroke-miterlimit:4;stroke-dasharray:none;stroke-opacity:1"
       d="M 150,3 L 200,3 L 600,403 L 600,453 L 150,3 z"
       id="path5109"
       sodipodi:nodetypes="ccccc" />
    <path
       style="opacity:1;fill:#fcef3c;fill-opacity:1;fill-rule:nonzero;stroke:#000000;stroke-width:3;stroke-linecap:butt;stroke-linejoin:miter;stroke-miterlimit:4;stroke-dasharray:none;stroke-opacity:1"
       d="M 1.5,153 L 1.5,203 L 491.71875,693.21875 C 500.82473,685.71397 509.49276,677.66977 517.65625,669.15625 L 1.5,153 z"
       id="path5111" />
  </g>
  <g
     inkscape:groupmode="layer"
     id="layer3"
     inkscape:label="Reflet final"
     style="display:inline"
     sodipodi:insensitive="true">
    <path
       style="fill:url(#radialGradient3236);fill-opacity:1"
       d="M 1.5,1.5 L 1.5,460.3679 C 1.5,626.67854 135.81454,761.5 301.49993,761.5 C 467.1854,761.5 601.5,626.67854 601.5,460.3679 L 601.5,1.5 L 1.5,1.5 z "
       id="path2346" />
  </g>
  <g
     inkscape:groupmode="layer"
     id="layer4"
     inkscape:label="Contour final"
     style="display:inline"
     sodipodi:insensitive="true">
    <path
       style="fill:none;fill-opacity:1;stroke:#000000;stroke-width:3;stroke-miterlimit:4;stroke-dasharray:none;stroke-opacity:1"
       d="M 1.5,1.5 L 1.5,460.36794 C 1.5,626.67854 135.81454,761.5 301.49993,761.5 C 467.1854,761.5 601.5,626.67854 601.5,460.36794 L 601.5,1.5 L 1.5,1.5 z"
       id="path3239" />
  </g>
</svg>

<?xml version="1.0" encoding="UTF-8"?>
<svg version="1.0" viewBox="0 0 603 763" xmlns="http://www.w3.org/2000/svg" xmlns:cc="http://creativecommons.org/ns#" xmlns:dc="http://purl.org/dc/elements/1.1/" xmlns:rdf="http://www.w3.org/1999/02/22-rdf-syntax-ns#" xmlns:xlink="http://www.w3.org/1999/xlink">
<metadata>
<rdf:RDF>
<cc:Work rdf:about="">
<dc:format>image/svg+xml</dc:format>
<dc:type rdf:resource="http://purl.org/dc/dcmitype/StillImage"/>
<dc:date>10-JUN-2010</dc:date>
<dc:creator>
<cc:Agent>
<dc:title>Aliman5040</dc:title>
</cc:Agent>
</dc:creator>
<cc:license rdf:resource=""/>
<dc:coverage/>
<dc:description/>
<dc:subject>
<rdf:Bag/>
</dc:subject>
<dc:language/>
<dc:title>Wappen Gemeinde Billens</dc:title>
</cc:Work>
</rdf:RDF>
</metadata>
<defs>
<radialGradient id="a" cx="858.04" cy="579.93" r="300" gradientTransform="matrix(1.215 1.5316e-24 1.4647e-23 1.2667 -839.19 -490.49)" gradientUnits="userSpaceOnUse">
<stop stop-color="#fff" stop-opacity=".31373" offset="0"/>
<stop stop-color="#fff" stop-opacity=".25098" offset=".19"/>
<stop stop-color="#6b6b6b" stop-opacity=".12549" offset=".6"/>
<stop stop-opacity=".12549" offset="1"/>
</radialGradient>
</defs>
<g>
<path d="m1.5 1.5v458.87c0 166.31 134.31 301.13 300 301.13 165.69 0 300-134.82 300-301.13v-458.87h-600z" fill="#e20909"/>
<path d="m1.5 3v101.5l538.5 538.5c30.692-40.321 51.485-88.637 58.688-141.31l-498.69-498.69h-98.5z" stroke="#000" stroke-width="3"/>
<path transform="matrix(.48547 .41088 -.41088 .48547 93.344 -38.712)" d="m340 260-58.799-41.3-55.891 45.157 21.108-68.684-60.218-39.201 71.845-1.1493 18.674-69.385 23.294 67.973 71.76-3.681-57.448 43.159 25.676 67.11z" fill="#fcef3c" stroke="#000" stroke-width="3"/>
<path transform="matrix(.42224 .47562 -.47562 .42224 273.8 106.05)" d="m340 260-58.799-41.3-55.891 45.157 21.108-68.684-60.218-39.201 71.845-1.1493 18.674-69.385 23.294 67.973 71.76-3.681-57.448 43.159 25.676 67.11z" fill="#fcef3c" stroke="#000" stroke-width="3"/>
<path transform="matrix(.44062 .45864 -.45864 .44062 401.74 243.4)" d="m340 260-58.799-41.3-55.891 45.157 21.108-68.684-60.218-39.201 71.845-1.1493 18.674-69.385 23.294 67.973 71.76-3.681-57.448 43.159 25.676 67.11z" fill="#fcef3c" stroke="#000" stroke-width="3"/>
<path d="m150 3h50l400 400v50l-450-450z" fill="#fcef3c" stroke="#000" stroke-width="3"/>
<path d="m1.5 153v50l490.22 490.22c9.106-7.5048 17.774-15.549 25.938-24.062l-516.16-516.16z" fill="#fcef3c" stroke="#000" stroke-width="3"/>
<path d="m1.5 1.5v458.87c0 166.31 134.31 301.13 300 301.13 165.69 0 300-134.82 300-301.13v-458.87h-600z" fill="url(#a)"/>
<path d="m1.5 1.5v458.87c0 166.31 134.31 301.13 300 301.13 165.69 0 300-134.82 300-301.13v-458.87h-600z" fill="none" stroke="#000" stroke-width="3"/>
</g>
</svg>
